X: 19473
T: Jackson's Morning Breeze
R: jig
M: 6/8
K: Dmajor
|:DFA def|edB ~g3|afd Adf|edB AFE|
DFA def|edB ~g3|afd Adf|1 edc dAF:|2 edc d2e||
|:fdf afa|bgb a2g|fdf afa|bgb a2g|
~f3 ~e3|dBd ~g3|afd Adf|1 edc d2e:|2 edc dAF||

